svg/bed.svg

<?xml version="1.0" encoding="UTF-8" standalone="no"?>
<svg
   xmlns:dc="http://purl.org/dc/elements/1.1/"
   xmlns:cc="http://creativecommons.org/ns#"
   xmlns:rdf="http://www.w3.org/1999/02/22-rdf-syntax-ns#"
   xmlns:svg="http://www.w3.org/2000/svg"
   xmlns="http://www.w3.org/2000/svg"
   xmlns:sodipodi="http://sodipodi.sourceforge.net/DTD/sodipodi-0.dtd"
   xmlns:inkscape="http://www.inkscape.org/namespaces/inkscape"
   class="ionicon"
   viewBox="0 0 512 512"
   version="1.1"
   id="svg6"
   sodipodi:docname="bed.svg"
   inkscape:version="1.0.2 (e86c8708, 2021-01-15)">
  <metadata
     id="metadata12">
    <rdf:RDF>
      <cc:Work
         rdf:about="">
        <dc:format>image/svg+xml</dc:format>
        <dc:type
           rdf:resource="http://purl.org/dc/dcmitype/StillImage" />
      </cc:Work>
    </rdf:RDF>
  </metadata>
  <defs
     id="defs10" />
  <sodipodi:namedview
     pagecolor="#ffffff"
     bordercolor="#666666"
     borderopacity="1"
     objecttolerance="10"
     gridtolerance="10"
     guidetolerance="10"
     inkscape:pageopacity="0"
     inkscape:pageshadow="2"
     inkscape:window-width="689"
     inkscape:window-height="480"
     id="namedview8"
     showgrid="false"
     inkscape:zoom="1.3027344"
     inkscape:cx="256"
     inkscape:cy="256"
     inkscape:window-x="44"
     inkscape:window-y="25"
     inkscape:window-maximized="0"
     inkscape:current-layer="svg6" />
  <title
     id="title2">Bed</title>
  <path
     style="color:#000000;font-style:normal;font-variant:normal;font-weight:normal;font-stretch:normal;font-size:medium;line-height:normal;font-family:sans-serif;font-variant-ligatures:normal;font-variant-position:normal;font-variant-caps:normal;font-variant-numeric:normal;font-variant-alternates:normal;font-variant-east-asian:normal;font-feature-settings:normal;font-variation-settings:normal;text-indent:0;text-align:start;text-decoration:none;text-decoration-line:none;text-decoration-style:solid;text-decoration-color:#000000;letter-spacing:normal;word-spacing:normal;text-transform:none;writing-mode:lr-tb;direction:ltr;text-orientation:mixed;dominant-baseline:auto;baseline-shift:baseline;text-anchor:start;white-space:normal;shape-padding:0;shape-margin:0;inline-size:0;clip-rule:nonzero;display:inline;overflow:visible;visibility:visible;isolation:auto;mix-blend-mode:normal;color-interpolation:sRGB;color-interpolation-filters:linearRGB;solid-color:#000000;solid-opacity:1;vector-effect:none;fill:#000000;fill-opacity:1;fill-rule:nonzero;stroke-width:1;stroke-linecap:butt;stroke-linejoin:miter;stroke-miterlimit:4;stroke-dasharray:none;stroke-dashoffset:0;stroke-opacity:1;color-rendering:auto;image-rendering:auto;shape-rendering:auto;text-rendering:auto;enable-background:accumulate;stop-color:#000000;stop-opacity:1;stroke:none;opacity:1"
     d="m 432,230.7 c -10.08675,-4.42788 -20.98417,-6.70952 -32,-6.7 H 112 c -11.01491,-0.0106 -21.911885,2.26751 -32,6.69 C 50.865339,243.43092 32.02784,272.20128 32,304 v 112 c 0,8.83656 7.163444,15.99999 16,15.99999 8.836556,0 16,-7.16343 16,-15.99999 v -8 c 0.05394,-4.39574 3.604259,-7.94606 8,-8 h 368 c 4.39574,0.0539 7.94606,3.60426 8,8 v 8 c 0,8.83656 7.16344,15.99999 16,15.99999 8.83656,0 16,-7.16343 16,-15.99999 V 304 c -0.0318,-31.79509 -18.86866,-60.56053 -48,-73.3 z M 376,80 H 136 c -30.92795,0 -56,25.07205 -56,56 v 72 c 0.0019,2.66112 2.553393,4.57846 5.11,3.84 8.734586,-2.55468 17.78949,-3.84776 26.89,-3.84 h 4.23 c 2.04471,0.013 3.77001,-1.51823 4,-3.55 1.80683,-16.18642 15.48306,-28.43347 31.77,-28.45 h 56 c 16.29841,0.001 29.9919,12.2522 31.8,28.45 0.22999,2.03177 1.95529,3.56298 4,3.55 h 24.46 c 2.04471,0.013 3.77001,-1.51823 4,-3.55 1.80553,-16.17505 15.46452,-28.41822 31.74,-28.45 h 56 c 16.29841,0.001 29.9919,12.2522 31.8,28.45 0.22999,2.03177 1.95529,3.56298 4,3.55 h 4.2 c 9.10098,-0.004 18.15588,1.29207 26.89,3.85 2.56061,0.73962 5.11473,-1.18472 5.11,-3.85 v -72 c 0,-30.92795 -25.07205,-56 -56,-56 z"
     id="path4" />
</svg>

<svg xmlns="http://www.w3.org/2000/svg" width="512" height="512" viewBox="0 0 512 512"><title>ionicons-v5-g</title><path d="M432,230.7a79.44,79.44,0,0,0-32-6.7H112a79.51,79.51,0,0,0-32,6.69h0A80.09,80.09,0,0,0,32,304V416a16,16,0,0,0,32,0v-8a8.1,8.1,0,0,1,8-8H440a8.1,8.1,0,0,1,8,8v8a16,16,0,0,0,32,0V304A80.09,80.09,0,0,0,432,230.7Z"/><path d="M376,80H136a56,56,0,0,0-56,56v72a4,4,0,0,0,5.11,3.84A95.5,95.5,0,0,1,112,208h4.23a4,4,0,0,0,4-3.55A32,32,0,0,1,152,176h56a32,32,0,0,1,31.8,28.45,4,4,0,0,0,4,3.55h24.46a4,4,0,0,0,4-3.55A32,32,0,0,1,304,176h56a32,32,0,0,1,31.8,28.45,4,4,0,0,0,4,3.55H400a95.51,95.51,0,0,1,26.89,3.85A4,4,0,0,0,432,208V136A56,56,0,0,0,376,80Z"/></svg>
